remix/Finance/coupon-5-line.svg

<svg viewBox="0 0 24 24" fill="currentColor" xmlns="http://www.w3.org/2000/svg"><path d="M21.0049 13.9998V20.9998C21.0049 21.5521 20.5572 21.9998 20.0049 21.9998H4.00488C3.4526 21.9998 3.00488 21.5521 3.00488 20.9998V13.9998C4.10945 13.9998 5.00488 13.1044 5.00488 11.9998C5.00488 10.8952 4.10945 9.99979 3.00488 9.99979V2.99979C3.00488 2.4475 3.4526 1.99979 4.00488 1.99979H20.0049C20.5572 1.99979 21.0049 2.4475 21.0049 2.99979V9.99979C19.9003 9.99979 19.0049 10.8952 19.0049 11.9998C19.0049 13.1044 19.9003 13.9998 21.0049 13.9998ZM19.0049 15.4647C17.8093 14.773 17.0049 13.4804 17.0049 11.9998C17.0049 10.5192 17.8093 9.22653 19.0049 8.53491V3.99979H5.00488V8.53491C6.20049 9.22653 7.00488 10.5192 7.00488 11.9998C7.00488 13.4804 6.20049 14.773 5.00488 15.4647V19.9998H19.0049V15.4647ZM9.00488 5.99979H15.0049V7.99979H9.00488V5.99979ZM9.00488 15.9998H15.0049V17.9998H9.00488V15.9998Z"/></svg>

<svg viewBox="0 0 24 24" xmlns="http://www.w3.org/2000/svg"><path fill="none" d="M0 0h24v24H0Z"/><path d="M21 14v7 0c0 .55-.45 1-1 1H4v0c-.56 0-1-.45-1-1v-7 0c1.1 0 2-.9 2-2 0-1.11-.9-2-2-2V3v0c0-.56.44-1 1-1h16v0c.55 0 1 .44 1 1v7 0c-1.11 0-2 .89-2 2 0 1.1.89 2 2 2Zm-2 1.46h-.001c-1.24-.72-2.01-2.04-2-3.47 0-1.48.8-2.78 2-3.465V3.98h-14V8.52c1.19.69 2 1.98 2 3.465 0 1.48-.81 2.77-2 3.465v4.535h14V15.45ZM9 5.99h6v2H9v-2Zm0 10h6v2H9v-2Z"/></svg>
